svg/100/rounded/local_pizza-fill.svg

<svg xmlns="http://www.w3.org/2000/svg" width="48" height="48" viewBox="0 -960 960 960"><path d="M479.776-788Q555-788 629.5-765 704-742 765-700q12 8.375 18 20.577 6 12.202 6 25.121 0 7.369-2 14.758-2 7.389-7 14.544L525-242q-8 11-20 17.5t-25.243 6.5q-13.244 0-25-6Q443-230 435-242L180-625q-5.769-7.5-7.385-14.5Q171-646.5 171-655q0-12.397 6-24.105 6-11.707 18-19.895 61-42 135.276-65.5 74.276-23.5 149.5-23.5Zm-137.07 196q13.823 0 23.559-8.941Q376-609.882 376-623.706q0-13.823-9.676-23.559-9.677-9.735-23.5-9.735Q329-657 320-647.323q-9 9.676-9 23.499Q311-610 319.941-601q8.941 9 22.765 9Zm137 209q13.823 0 23.559-9.471 9.735-9.47 9.735-23 0-13.529-9.676-23.029-9.677-9.5-23.5-9.5Q466-448 457-438.684q-9 9.316-9 22.625 0 13.726 8.941 23.392Q465.882-383 479.706-383Z"/></svg>

<svg xmlns="http://www.w3.org/2000/svg" width="48" height="48" viewBox="0 -960 960 960"><path d="M479.78-788q75.22 0 149.72 23T765-700q12 8.37 18 20.58 6 12.2 6 25.12 0 7.37-2 14.76T780-625L525-242q-8 11-20 17.5t-25.24 6.5q-13.25 0-25-6Q443-230 435-242L180-625q-5.77-7.5-7.38-14.5-1.62-7-1.62-15.5 0-12.4 6-24.1 6-11.71 18-19.9 61-42 135.28-65.5 74.27-23.5 149.5-23.5ZM342.71-592q13.82 0 23.55-8.94 9.74-8.94 9.74-22.77 0-13.82-9.68-23.55-9.67-9.74-23.5-9.74-13.82 0-22.82 9.68-9 9.67-9 23.5 0 13.82 8.94 22.82t22.77 9Zm137 209q13.82 0 23.55-9.47 9.74-9.47 9.74-23t-9.68-23.03q-9.67-9.5-23.5-9.5-13.82 0-22.82 9.32-9 9.31-9 22.62 0 13.73 8.94 23.39 8.94 9.67 22.77 9.67Z"/></svg>
